icons/evolvere-black-folders-vivid-dark-fallback/places/24/folder-videos.svg

<?xml version="1.0" encoding="UTF-8" standalone="no"?>
<!-- Created with Inkscape (http://www.inkscape.org/) -->

<svg
   xmlns:dc="http://purl.org/dc/elements/1.1/"
   xmlns:cc="http://creativecommons.org/ns#"
   xmlns:rdf="http://www.w3.org/1999/02/22-rdf-syntax-ns#"
   xmlns:svg="http://www.w3.org/2000/svg"
   xmlns="http://www.w3.org/2000/svg"
   xmlns:sodipodi="http://sodipodi.sourceforge.net/DTD/sodipodi-0.dtd"
   xmlns:inkscape="http://www.inkscape.org/namespaces/inkscape"
   id="svg13094"
   height="24"
   width="24"
   version="1.1"
   inkscape:version="0.48.3.1 r9886"
   sodipodi:docname="folder-videos.svg">
  <defs
     id="defs3016" />
  <sodipodi:namedview
     pagecolor="#ffffff"
     bordercolor="#666666"
     borderopacity="1"
     objecttolerance="10"
     gridtolerance="10"
     guidetolerance="10"
     inkscape:pageopacity="0"
     inkscape:pageshadow="2"
     inkscape:window-width="1920"
     inkscape:window-height="1033"
     id="namedview3014"
     showgrid="true"
     inkscape:zoom="29.5"
     inkscape:cx="7.3573759"
     inkscape:cy="10.67182"
     inkscape:window-x="-10"
     inkscape:window-y="25"
     inkscape:window-maximized="1"
     inkscape:current-layer="svg13094"
     inkscape:snap-bbox="true"
     inkscape:bbox-paths="true"
     inkscape:bbox-nodes="true"
     inkscape:snap-bbox-edge-midpoints="true"
     inkscape:snap-bbox-midpoints="true"
     inkscape:object-paths="true"
     inkscape:snap-intersection-paths="true"
     inkscape:object-nodes="true"
     inkscape:snap-smooth-nodes="true"
     inkscape:snap-midpoints="true"
     inkscape:snap-object-midpoints="true"
     inkscape:snap-center="true">
    <inkscape:grid
       type="xygrid"
       id="grid2982"
       empspacing="5"
       visible="true"
       enabled="true"
       snapvisiblegridlinesonly="true" />
  </sodipodi:namedview>
  <metadata
     id="metadata13099">
    <rdf:RDF>
      <cc:Work
         rdf:about="">
        <dc:format>image/svg+xml</dc:format>
        <dc:type
           rdf:resource="http://purl.org/dc/dcmitype/StillImage" />
        <dc:title />
      </cc:Work>
    </rdf:RDF>
  </metadata>
  <path
     sodipodi:nodetypes="ccccccccccccccccccccccccccccccccccccccccccccc"
     inkscape:connector-curvature="0"
     id="path2983"
     d="M 4,4 4,20 20,20 20,4 z M 5,5 7,5 7,8 5,8 z m 4,0 2,0 0,3 -2,0 z m 4,0 2,0 0,3 -2,0 z m 4,0 2,0 0,3 -2,0 z m -12,11 2,0 0,3 -2,0 z m 4,0 2,0 0,3 -2,0 z m 4,0 2,0 0,3 -2,0 z m 4,0 2,0 0,3 -2,0 z"
     style="fill:#434a54;fill-opacity:0.6745098;fill-rule:nonzero" />
  <path
     style="font-size:medium;font-style:normal;font-variant:normal;font-weight:normal;font-stretch:normal;text-indent:0;text-align:start;text-decoration:none;line-height:normal;letter-spacing:normal;word-spacing:normal;text-transform:none;direction:ltr;block-progression:tb;writing-mode:lr-tb;text-anchor:start;baseline-shift:baseline;color:#000000;fill:#d1d4d6;fill-opacity:0.74329164000000003;fill-rule:nonzero;stroke:none;stroke-width:2;marker:none;visibility:visible;display:inline;overflow:visible;enable-background:accumulate;font-family:Sans;-inkscape-font-specification:Sans"
     d="M 3 3 L 3 4 L 3 20 L 3 21 L 4 21 L 20 21 L 21 21 L 21 20 L 21 4 L 21 3 L 20 3 L 4 3 L 3 3 z M 4 4 L 20 4 L 20 20 L 4 20 L 4 4 z M 5 5 L 5 8 L 7 8 L 7 5 L 5 5 z M 9 5 L 9 8 L 11 8 L 11 5 L 9 5 z M 13 5 L 13 8 L 15 8 L 15 5 L 13 5 z M 17 5 L 17 8 L 19 8 L 19 5 L 17 5 z M 5 16 L 5 19 L 7 19 L 7 16 L 5 16 z M 9 16 L 9 19 L 11 19 L 11 16 L 9 16 z M 13 16 L 13 19 L 15 19 L 15 16 L 13 16 z M 17 16 L 17 19 L 19 19 L 19 16 L 17 16 z "
     id="rect2988" />
</svg>

<?xml version="1.0" encoding="UTF-8" standalone="no"?>
<!-- Created with Inkscape (http://www.inkscape.org/) -->

<svg
   xmlns:dc="http://purl.org/dc/elements/1.1/"
   xmlns:cc="http://creativecommons.org/ns#"
   xmlns:rdf="http://www.w3.org/1999/02/22-rdf-syntax-ns#"
   xmlns:svg="http://www.w3.org/2000/svg"
   xmlns="http://www.w3.org/2000/svg"
   xmlns:sodipodi="http://sodipodi.sourceforge.net/DTD/sodipodi-0.dtd"
   xmlns:inkscape="http://www.inkscape.org/namespaces/inkscape"
   id="svg13094"
   height="24"
   width="24"
   version="1.1"
   inkscape:version="0.48.3.1 r9886"
   sodipodi:docname="folder-videos.svg">
  <defs
     id="defs3016" />
  <sodipodi:namedview
     pagecolor="#ffffff"
     bordercolor="#666666"
     borderopacity="1"
     objecttolerance="10"
     gridtolerance="10"
     guidetolerance="10"
     inkscape:pageopacity="0"
     inkscape:pageshadow="2"
     inkscape:window-width="1920"
     inkscape:window-height="1033"
     id="namedview3014"
     showgrid="true"
     inkscape:zoom="29.5"
     inkscape:cx="12.696359"
     inkscape:cy="10.67182"
     inkscape:window-x="-10"
     inkscape:window-y="25"
     inkscape:window-maximized="1"
     inkscape:current-layer="svg13094"
     inkscape:snap-bbox="true"
     inkscape:bbox-paths="true"
     inkscape:bbox-nodes="true"
     inkscape:snap-bbox-edge-midpoints="true"
     inkscape:snap-bbox-midpoints="true"
     inkscape:object-paths="true"
     inkscape:snap-intersection-paths="true"
     inkscape:object-nodes="true"
     inkscape:snap-smooth-nodes="true"
     inkscape:snap-midpoints="true"
     inkscape:snap-object-midpoints="true"
     inkscape:snap-center="true">
    <inkscape:grid
       type="xygrid"
       id="grid2982"
       empspacing="5"
       visible="true"
       enabled="true"
       snapvisiblegridlinesonly="true" />
  </sodipodi:namedview>
  <metadata
     id="metadata13099">
    <rdf:RDF>
      <cc:Work
         rdf:about="">
        <dc:format>image/svg+xml</dc:format>
        <dc:type
           rdf:resource="http://purl.org/dc/dcmitype/StillImage" />
        <dc:title />
      </cc:Work>
    </rdf:RDF>
  </metadata>
  <path
     style="fill:#EDEFF3;fill-opacity:0.758;fill-rule:nonzero"
     d="M 3 4 L 3 8 L 4 8 L 4 16 L 3 16 L 3 20 L 21 20 L 21 16 L 20 16 L 20 8 L 21 8 L 21 4 L 3 4 z M 5 5 L 7 5 L 7 8 L 5 8 L 5 5 z M 9 5 L 11 5 L 11 8 L 9 8 L 9 5 z M 13 5 L 15 5 L 15 8 L 13 8 L 13 5 z M 17 5 L 19 5 L 19 8 L 17 8 L 17 5 z M 5 16 L 7 16 L 7 19 L 5 19 L 5 16 z M 9 16 L 11 16 L 11 19 L 9 19 L 9 16 z M 13 16 L 15 16 L 15 19 L 13 19 L 13 16 z M 17 16 L 19 16 L 19 19 L 17 19 L 17 16 z "
     id="rect2988" />
</svg>
